X:673
T: MARIA GING AUS WANDERN
N: E2061
O: Europa, Mitteleuropa, Deutschland, Schlesien, Schnurgast
R: geistlich, Marien - Lied, Legende
M: 4/4
L: 1/8
K: G
D2 | G2G2G2B2 | G4D2
D2 | G2G2A2A2 | B4z2
GA | B4c2e2 | d4B2
B2 | d3dc2A2 | G4z2

